!!!COM: Haydn, Franz Joseph
!!!OTL: String Quartet in D Minor
!!!OPS: Opus 76
!!!ONM: No. 2
!!!OMD: Menuetto: Allegro ma non troppo "Witches Minuet"
!!!OMV: 3
!!!SCT: H III:76
!!!SCA: Thematisch-bibliographisches Werkevererzeichnis (A. van Hoboken)
!!!YOR: Trautwein Edition
!!!ENC: Frances Bennion
!!!CDT: 1732/3/31/-1809/5/31/
!!!CNT: Oesterreich
!!!YEC: Copyright (c) 1994, 2000 Center for Computer Assisted Research in the Humanities
!!!YEM: Rights to all derivative editions reserved.
!!!YEM: Refer to licensing agreement for further details.
!!!YEN: United States of America
**kern	**kern	**kern	**kern
*k[b-]	*k[b-]	*k[b-]	*k[b-]
*d:	*d:	*d:	*d:
*clefF4	*clefC3	*clefF	*clefF
*M3/4	*M3/4	*M3/4	*M3/4
2r	2r	2r	2r
4r	4r	8d	8dd
.	.	8e	8ee
=1	=1	=1	=1
4r	4r	4f	4ff
4r	4r	8f	8ff
.	.	8g	8gg
8DD	8D	8f	8ff
8EE	8E	8e	8ee
=2	=2	=2	=2
4FF	4F	4d	4dd
8FF	8F	8d	8dd
8GG	8G	8e	8ee
8FF	8F	8f	8ff
8EE	8E	8g	8gg
=3	=3	=3	=3
4DD	4D	4a	4aa
8DD	8D	4a	4aa
8EE	8E	.	.
8FF	8F	4dd	4ddd
8GG	8G	.	.
=4	=4	=4	=4
4AA	4A	8cc#	8ccc#
.	.	8ee	8eee
4AA	4A	4a	4aa
4D	4d	4g#	4gg#
=5	=5	=5	=5
8C#	8c#	2a	2aa
8E	8e	.	.
4AA	4A	.	.
4GG#	4G#	8f	8ff
.	.	8d	8dd
=6	=6	=6	=6
2AA	2A	4c#	4cc#
.	.	4e	4ee
8FF	8F	4a	4aa
8DD	8D	.	.
=7	=7	=7	=7
4CC#	4C#	4b-	4bb-
4EE	4E	4b-	4bb-
4AA	4A	8g	8gg
.	.	8e	8ee
=8	=8	=8	=8
4BB-	4B-	4c#	4cc#
4BB-	4B-	4c#	4cc#
8GG	8G	4r	4r
8EE	8E	.	.
=9	=9	=9	=9
4CC#	4C#	4A	4a
4CC#	4C#	4A	4a
4r	4r	4d	4dd
=10	=10	=10	=10
4AA	4A	4e	4ee
4AA	4A	8e	8ee
.	.	8f	8ff
4DD	4D	4d	4dd
=11	=11	=11	=11
4EE	4E	4r	4r
8EE	8E	4r	4r
8FF	8F	.	.
4DD	4D	8d	8dd
.	.	8e	8ee
=12	=12	=12	=12
4r	4r	4f	4ff
4r	4r	4f	4ff
8DD	8D	4g	4gg
8EE	8E	.	.
=13	=13	=13	=13
4FF	4F	4a	4aa
4FF	4F	8a	8aa
.	.	8b-	8bb-
4GG	4G	4g	4gg
=14	=14	=14	=14
4AA	4A	4f	4ff
8AA	8A	8cc	8ccc
8BB-	8B-	8dd	8ddd
4GG	4G	8b-	8bb-
.	.	8cc	8ccc
=15	=15	=15	=15
4FF	4F	4a	4aa
8C	8c	4r	4r
8D	8d	.	.
8BB-	8B-	4cc	4ccc
8C	8c	.	.
=16	=16	=16	=16
4AA	4A	4ff	4fff
4r	4r	4f	4ff
4C	4c	4g	4gg
=17	=17	=17	=17
4F	4f	4a	4aa
4FF	4F	4r	4r
4GG	4G	4b-	4bb-
=18	=18	=18	=18
4AA	4A	4c#	4cc#
4r	4r	4c#	4cc#
4BB-	4B-	4d	4dd
=19	=19	=19	=19
4CC#	4C#	4e	4ee
4CC#	4C#	4e	4ee
4DD	4D	4f	4ff
=20	=20	=20	=20
4EE	4E	4c#	4cc#
4EE	4E	4c#	4cc#
4FF	4F	4d	4dd
=21	=21	=21	=21
4CC#	4C#	4e	4ee
4CC#	4C#	4e	4ee
4DD	4D	4f	4ff
=22	=22	=22	=22
4EE	4E	4r	4r
4EE	4E	4r	4r
4FF	4F	8d	8dd
.	.	8e	8ee
=23	=23	=23	=23
4r	4r	4f	4ff
4r	4r	8f	8ff
.	.	8g	8gg
8DD	8D	8f	8ff
8EE	8E	8e	8ee
=24	=24	=24	=24
4FF	4F	4d	4dd
8FF	8F	8d	8dd
8GG	8G	8e	8ee
8FF	8F	8f	8ff
8EE	8E	8g	8gg
=25	=25	=25	=25
4DD	4D	4a	4aa
8DD	8D	4a	4aa
8EE	8E	.	.
8FF	8F	4dd	4ddd
8GG	8G	.	.
=26	=26	=26	=26
4AA	4A	8cc#	8ccc#
.	.	8ee	8eee
4AA	4A	4a	4aa
4D	4d	4g#	4gg#
=27	=27	=27	=27
8C#	8c#	2a	2aa
8E	8e	.	.
4AA	4A	.	.
4GG#	4G#	4dd	4ddd
=28	=28	=28	=28
2AA	2A	8cc#	8ccc#
.	.	8ee	8eee
.	.	4a	4aa
4D	4d	4b-	4bb-
=29	=29	=29	=29
8C#	8c#	4a	4aa
8E	8e	.	.
4AA	4A	4f	4ff
4BB-	4B-	4g	4gg
=30	=30	=30	=30
4AA	4A	8g	8gg
.	.	8f	8ff
4FF	4F	8e	8ee
.	.	8d	8dd
4GG	4G	4c#	4cc#
=31	=31	=31	=31
8GG	8G	4d	4dd
8FF	8F	.	.
8EE	8E	4d	4dd
8DD	8D	.	.
4CC#	4C#	4e	4ee
=32	=32	=32	=32
4DD	4D	4f	4ff
4DD	4D	4f	4ff
4EE	4E	4r	4r
=33	=33	=33	=33
4FF	4F	4A	4a
4FF	4F	4A	4a
4r	4r	4d	4dd
=34	=34	=34	=34
4AA	4A	4e	4ee
4AA	4A	8e	8ee
.	.	8f	8ff
4DD	4D	4d	4dd
=35	=35	=35	=35
4EE	4E	2.r	2.r
8EE	8E	.	.
8FF	8F	.	.
4DD	4D	.	.
=36	=36	=36	=36
2.r	2.r	4a	4aa
.	.	8e	8ee
.	.	8f	8ff
.	.	4d	4dd
=37	=37	=37	=37
4AA	4A	4r	4r
8EE	8E	4r	4r
8FF	8F	.	.
4DD	4D	8d	8dd
.	.	8e	8ee
=38	=38	=38	=38
4AA	4A	4r	4r
8EE	8E	4r	4r
8FF	8F	.	.
4DD	4D	4d	4dd
=39	=39	=39	=39
*D:	*D:	*D:	*D:
2.r	2.r	4d	4dd
.	.	4d	4dd
.	.	4d	4dd
=40	=40	=40	=40
4r	4r	4d	4dd
4r	4r	4d	4dd
4d	4f	4a	4dd
=41	=41	=41	=41
4d	4f	4a	4dd
4d	4f	4a	4dd
4d	4f	4a	4dd
=42	=42	=42	=42
4d	4f	4a	4dd
4d	4f	4a	4dd
4D	4A 4f#	4a 4f#	4dd 4d
=43	=43	=43	=43
4D	4A 4f#	4a 4f#	4dd 4d
4D	4f# 4A	4a 4f#	4dd 4d
4D	4f# 4A	4a 4f#	4dd 4d
=44	=44	=44	=44
4D	4f# 4A	4a 4f#	4dd 4d
4D	4A 4f#	4a 4f#	4dd 4d
4DD	4f# 4A	4a 4f#	4d 4dd
=45	=45	=45	=45
4DD	4A 4f#	4a 4f#	8cc#
.	.	.	8dd
4DD	4A 4f#	4a 4f#	8ee
.	.	.	8dd
4DD	4A 4f#	4a 4f#	8ee
.	.	.	8dd
=46	=46	=46	=46
4DD	4e 4c#	4g 4A	8cc#
.	.	.	8dd
4DD	4e 4c#	4g 4A	8ee
.	.	.	8ff#
4DD	4e 4c#	4A 4g	8gg
.	.	.	8aa
=47	=47	=47	=47
4DD	4A 4f#	4A 4f#	8bb
.	.	.	8aa
4DD	4A 4f#	4A 4f#	8ddd
.	.	.	8ccc#
4DD	4A 4f#	4f# 4dd	8bb
.	.	.	8aa
=48	=48	=48	=48
4DD	4g 4A	4e 4cc#	8gg
.	.	.	8aa
4DD	4A 4g	4e 4cc#	8bb
.	.	.	8ccc#
4DD	4A 4g	4e 4cc#	8ddd
.	.	.	8eee
=49	=49	=49	=49
4DD	4A 4f#	4f# 4dd	8fff#
.	.	.	8ggg
4D	4d	4ff#	8aaa
.	.	.	8aaa
4D	4d	4ff#	8aaa
.	.	.	8aaa
=50	=50	=50	=50
4C#	4a	4ee	8aaa
.	.	.	8aaa
4C#	4a	4ee	8aaa
.	.	.	8aaa
4C#	4a	4ee	8aaa
.	.	.	8aaa
=51	=51	=51	=51
4E	4b	4dd	8ggg#
.	.	.	8aaa
4E	4g#	4dd	8bbb
.	.	.	8aaa
4E	8g#	4dd	8bbb
.	8b	.	8ggg#
=52	=52	=52	=52
4AA	4a	4cc#	4aaa
2r	2r	4r	4r
.	.	4d	4ddd
=53	=53	=53	=53
4AA	4a	4cc#	4aaa
4r	4r	4r	4r
4A	4c#	4e	4r
=54	=54	=54	=54
4A	4c#	4e	2.r
4A	4c#	4e	.
4A	4c#	4e	.
=55	=55	=55	=55
4A	4c#	4e	4r
4A	4c#	4e	4r
4A	4c#	4e	4aa
=56	=56	=56	=56
4A	4c#	4e	4aa
4A	4c#	4e	4aa
4A	4c#	4e	4aa
=57	=57	=57	=57
4A	4c#	4e	4aa
4A	4c#	4e	4aa
4A	4c#	4e	8aa
.	.	.	8gg
=58	=58	=58	=58
4A	4d	4f	8ff
.	.	.	8ee
4A	4d	4f	8dd
.	.	.	8cc#
4A	4d	8f	8dd
.	.	8d	8ff
=59	=59	=59	=59
4A	4c#	4e	8ee
.	.	.	8cc#
4A	4c#	4e	8a
.	.	.	8bb-
4A	4c#	4e	8aa
.	.	.	8gg
=60	=60	=60	=60
4A	4d	4f	8ff
.	.	.	8ee
4A	4d	4f	8dd
.	.	.	8cc#
4A	4d	8f	8dd
.	.	8d	8ff
=61	=61	=61	=61
4A	4c#	4e	8ee
.	.	.	8cc#
4A	4c#	4e	8a
.	.	.	8bb-
4A	4c#	4e	8aa
.	.	.	8gg
=62	=62	=62	=62
4A	4d	4f	8ff
.	.	.	8ee
4A	4d	4f	8dd
.	.	.	8cc#
4A	4d	8f	8dd
.	.	8d	8ff
=63	=63	=63	=63
4A	4c#	4e	4aa
2r	2r	4a	4aa
.	.	4a	4aa
=64	=64	=64	=64
4r	4r	4a	4aa
4r	4r	4a	4aa
4AA	4A	4r	4r
=65	=65	=65	=65
4AA	4A	4r	4r
4AA	4A	4r	4r
4r	4r	4d	4dd
=66	=66	=66	=66
4r	4r	4d	4dd
4r	4r	4d	4dd
4d	4f	4a	4dd
=67	=67	=67	=67
4d	4f	4a	4dd
4d	4f	4a	4dd
4r	4r	4d	4dd
=68	=68	=68	=68
4r	4r	4d	4dd
4r	4r	4d	4dd
4d	4g	4b-	4dd
=69	=69	=69	=69
4d	4g	4b-	4dd
4d	4g	4b-	4dd
4r	4r	4d	4dd
=70	=70	=70	=70
4r	4r	4d	4dd
4r	4r	4d	4dd
4d	4f	4a	4dd
=71	=71	=71	=71
4d	4f	4a	4dd
4d	4f	4a	4dd
4D	4A 4f#	4a 4f#	4dd 4d
=72	=72	=72	=72
4D	4f# 4A	4a 4f#	4dd 4d
4D	4A 4f#	4a 4f#	4dd 4d
4D	4A 4f#	4a 4f#	4dd 4d
=73	=73	=73	=73
4D	4f# 4A	4a 4f#	4dd 4d
4D	4A 4f#	4a 4f#	4dd 4d
4DD	4A 4f#	4f# 4a	4dd 4d
=74	=74	=74	=74
4DD	4f# 4A	4a 4f#	8cc#
.	.	.	8dd
4DD	4A 4f#	4a 4f#	8ee
.	.	.	8dd
4DD	4f# 4A	4f# 4a	8ee
.	.	.	8dd
=75	=75	=75	=75
4DD	4e 4c#	4g 4A	8cc#
.	.	.	8dd
4DD	4e 4c#	4A 4g	8ee
.	.	.	8ff#
4DD	4e 4c#	4g 4A	8gg
.	.	.	8aa
=76	=76	=76	=76
4DD	4f# 4A	4A 4f#	8bb
.	.	.	8aa
4DD	4A 4f#	4f# 4A	8ddd
.	.	.	8ccc#
4DD	4f# 4A	4f# 4dd	8bb
.	.	.	8aa
=77	=77	=77	=77
4DD	4A 4g	4cc# 4e	8gg
.	.	.	8aa
4DD	4g 4A	4cc# 4e	8bb
.	.	.	8ccc#
4DD	4g 4A	4e 4cc#	8ddd
.	.	.	8eee
=78	=78	=78	=78
4DD	4f# 4A	4d 4dd	8fff#
.	.	.	8ggg
4DD	4f# 4A	4ff#	8aaa
.	.	.	8aaa
4DD	4A 4f#	4aa	8aaa
.	.	.	8aaa
=79	=79	=79	=79
4GG	4g	4dd	8ggg
.	.	.	8aaa
4GG	4d	4gg	8bbb
.	.	.	8bbb
4GG	4d	4bb	8bbb
.	.	.	8bbb
=80	=80	=80	=80
4AA	4g	4cc#	8aaa
.	.	.	8bbb
4AA	4g	4ee	8cccc#
.	.	.	8cccc#
4AA	4e	4gg	8cccc#
.	.	.	8cccc#
=81	=81	=81	=81
4DD	4f#	4ff#	4dddd
2r	2r	2r	2r
==	==	==	==
*-	*-	*-	*-
!!!RWG1: This file contains only pitch and duration data.
!!!RWG2: Transposing instruments are not transposed.
!!!RWG3: Spines may have incompatible meters.
!!!RWG4: Durations of rests and tied notes may be interpreted.
!!!RWG: Key is interpreted using the Humdrum key tool.
!!!GTL: 6 Quartetti ("Erdödy")
!!!OPT: Fifths
!!!AFT: stage1
!!!END: 1997/04/15
!!!KEY: 4248143612
!!!EMD: Converted from MuseData to Humdrum Dec 16, 2000, by Andreas Kornstaedt using muse2kern.
!!!EMD: Manual editing by Craig Sapp, Nov 2001
